src/assets/icons/fa/list.svg

<?xml version="1.0" encoding="utf-8"?>
<svg width="1792" height="1792" viewBox="0 0 1792 1792" xmlns="http://www.w3.org/2000/svg"><path d="M256 1312v192q0 13-9.5 22.5t-22.5 9.5h-192q-13 0-22.5-9.5t-9.5-22.5v-192q0-13 9.5-22.5t22.5-9.5h192q13 0 22.5 9.5t9.5 22.5zm0-384v192q0 13-9.5 22.5t-22.5 9.5h-192q-13 0-22.5-9.5t-9.5-22.5v-192q0-13 9.5-22.5t22.5-9.5h192q13 0 22.5 9.5t9.5 22.5zm0-384v192q0 13-9.5 22.5t-22.5 9.5h-192q-13 0-22.5-9.5t-9.5-22.5v-192q0-13 9.5-22.5t22.5-9.5h192q13 0 22.5 9.5t9.5 22.5zm1536 768v192q0 13-9.5 22.5t-22.5 9.5h-1344q-13 0-22.5-9.5t-9.5-22.5v-192q0-13 9.5-22.5t22.5-9.5h1344q13 0 22.5 9.5t9.5 22.5zm-1536-1152v192q0 13-9.5 22.5t-22.5 9.5h-192q-13 0-22.5-9.5t-9.5-22.5v-192q0-13 9.5-22.5t22.5-9.5h192q13 0 22.5 9.5t9.5 22.5zm1536 768v192q0 13-9.5 22.5t-22.5 9.5h-1344q-13 0-22.5-9.5t-9.5-22.5v-192q0-13 9.5-22.5t22.5-9.5h1344q13 0 22.5 9.5t9.5 22.5zm0-384v192q0 13-9.5 22.5t-22.5 9.5h-1344q-13 0-22.5-9.5t-9.5-22.5v-192q0-13 9.5-22.5t22.5-9.5h1344q13 0 22.5 9.5t9.5 22.5zm0-384v192q0 13-9.5 22.5t-22.5 9.5h-1344q-13 0-22.5-9.5t-9.5-22.5v-192q0-13 9.5-22.5t22.5-9.5h1344q13 0 22.5 9.5t9.5 22.5z"/></svg>

<svg width="1792" height="1792" xmlns="http://www.w3.org/2000/svg"><path d="M256 1312v192q0 13-9.5 22.5T224 1536H32q-13 0-22.5-9.5T0 1504v-192q0-13 9.5-22.5T32 1280h192q13 0 22.5 9.5t9.5 22.5zm0-384v192q0 13-9.5 22.5T224 1152H32q-13 0-22.5-9.5T0 1120V928q0-13 9.5-22.5T32 896h192q13 0 22.5 9.5T256 928zm0-384v192q0 13-9.5 22.5T224 768H32q-13 0-22.5-9.5T0 736V544q0-13 9.5-22.5T32 512h192q13 0 22.5 9.5T256 544zm1536 768v192q0 13-9.5 22.5t-22.5 9.5H416q-13 0-22.5-9.5T384 1504v-192q0-13 9.5-22.5t22.5-9.5h1344q13 0 22.5 9.5t9.5 22.5zM256 160v192q0 13-9.5 22.5T224 384H32q-13 0-22.5-9.5T0 352V160q0-13 9.5-22.5T32 128h192q13 0 22.5 9.5T256 160zm1536 768v192q0 13-9.5 22.5t-22.5 9.5H416q-13 0-22.5-9.5T384 1120V928q0-13 9.5-22.5T416 896h1344q13 0 22.5 9.5t9.5 22.5zm0-384v192q0 13-9.5 22.5T1760 768H416q-13 0-22.5-9.5T384 736V544q0-13 9.5-22.5T416 512h1344q13 0 22.5 9.5t9.5 22.5zm0-384v192q0 13-9.5 22.5T1760 384H416q-13 0-22.5-9.5T384 352V160q0-13 9.5-22.5T416 128h1344q13 0 22.5 9.5t9.5 22.5z"/></svg>
